X: 138
T: Parish of Dalmailing
R:Strathspey
C:James Porteous
S:MacDonald - Skye Collection
N:pg.130
M:C
L:1/8
K:Eb
B,|E>FEe B<G F>E|D<F F>E D<FF<G|E>FEe B<G F>E|D<B, C>D E>FE<B,|
E>FEe B<G F>E|D>F F>E D<F F>G|E>FEe B<G F>E|D<B, C>E E2E||
e/f/|geBG eBGE|c<A F>E D(FF)e/f/|geBG eBGE|c<A F>E (E2 E)c/d/|
eEdE cEBE|D<F F>E D(FF)G/F/|EB,CE B,Eec|B<G F>G E2E||


